src/images/svg-to-icon-sprite/whatsapp-logo.svg

<svg width="19" height="19" viewBox="0 0 19 19" fill="none" xmlns="http://www.w3.org/2000/svg">
<path fill-rule="evenodd" clip-rule="evenodd" d="M9.38096 18.6122H9.37711C7.82016 18.6117 6.29031 18.2211 4.93154 17.4799L0 18.7735L1.31976 13.9529C0.505669 12.5421 0.0772967 10.9418 0.0779949 9.30219C0.0800356 4.173 4.25326 0 9.38087 0C11.8695 0.00107406 14.2052 0.969879 15.9616 2.7283C17.7179 4.48663 18.6847 6.82388 18.6837 9.30953C18.6816 14.4376 14.5101 18.6101 9.38096 18.6122ZM5.15968 15.7957L5.44202 15.9633C6.62918 16.6678 7.99001 17.0405 9.37747 17.0411H9.3806C13.6423 17.0411 17.1109 13.5724 17.1126 9.30894C17.1134 7.24289 16.3099 5.30027 14.8501 3.83874C13.3903 2.37721 11.4489 1.57193 9.38365 1.57121C5.11865 1.57121 1.65001 5.03954 1.64832 9.30268C1.64772 10.7637 2.0565 12.1865 2.8305 13.4176L3.01435 13.7101L2.23323 16.5634L5.15968 15.7957ZM13.7493 11.3124C13.9114 11.3907 14.0209 11.4437 14.0676 11.5217C14.1257 11.6186 14.1257 12.084 13.9321 12.6271C13.7383 13.17 12.8097 13.6656 12.3631 13.7323C11.9626 13.7922 11.4558 13.8171 10.899 13.6402C10.5614 13.5331 10.1285 13.39 9.5739 13.1505C7.39477 12.2096 5.92213 10.0975 5.6438 9.69837C5.62431 9.67041 5.61067 9.65085 5.60306 9.64069L5.60119 9.63819C5.47818 9.47406 4.65393 8.37432 4.65393 7.23613C4.65393 6.16543 5.17988 5.60422 5.42197 5.3459C5.43856 5.3282 5.45381 5.31192 5.46747 5.297C5.68053 5.06429 5.93237 5.00611 6.08732 5.00611C6.24226 5.00611 6.39739 5.00754 6.53282 5.01434C6.54954 5.01518 6.56692 5.01508 6.58489 5.01498C6.72034 5.01418 6.88922 5.01319 7.05581 5.41336C7.1199 5.56736 7.21368 5.79567 7.31259 6.03646C7.51261 6.52341 7.7336 7.06143 7.77248 7.13929C7.83061 7.25565 7.86934 7.39134 7.79186 7.54654C7.78023 7.56981 7.76947 7.59177 7.75919 7.61275C7.701 7.73156 7.65819 7.81895 7.55942 7.93427C7.52058 7.97962 7.48044 8.02851 7.4403 8.07739C7.36033 8.17478 7.28037 8.27216 7.21075 8.34152C7.09438 8.45743 6.97324 8.58319 7.10884 8.8159C7.24443 9.04861 7.71093 9.80977 8.40195 10.4261C9.14475 11.0887 9.79035 11.3687 10.1176 11.5107C10.1815 11.5384 10.2333 11.5609 10.2712 11.5799C10.5036 11.6963 10.6392 11.6768 10.7748 11.5217C10.9104 11.3666 11.3559 10.8429 11.5108 10.6103C11.6657 10.3776 11.8208 10.4164 12.0338 10.4939C12.2469 10.5716 13.3897 11.1338 13.6221 11.2502C13.6675 11.2729 13.7099 11.2934 13.7493 11.3124Z" fill="#58585B"/>
</svg>

<svg width="19" height="19" fill="none" xmlns="http://www.w3.org/2000/svg"><path fill-rule="evenodd" clip-rule="evenodd" d="M9.381 18.612h-.004a9.293 9.293 0 0 1-4.445-1.132L0 18.773l1.32-4.82a9.286 9.286 0 0 1-1.242-4.65C.08 4.172 4.253 0 9.381 0a9.243 9.243 0 0 1 6.58 2.728 9.247 9.247 0 0 1 2.723 6.582c-.002 5.128-4.174 9.3-9.303 9.302ZM5.16 15.796l.282.167a7.72 7.72 0 0 0 3.935 1.078h.004c4.261 0 7.73-3.469 7.732-7.732a7.686 7.686 0 0 0-2.263-5.47A7.68 7.68 0 0 0 9.384 1.57c-4.265 0-7.734 3.469-7.736 7.732 0 1.46.409 2.883 1.182 4.115l.184.292-.78 2.853 2.926-.767Zm8.59-4.484c.161.079.27.132.318.21.058.097.058.562-.136 1.105-.194.543-1.122 1.039-1.569 1.105-.4.06-.907.085-1.464-.092-.338-.107-.77-.25-1.325-.49-2.18-.94-3.652-3.053-3.93-3.452a2.788 2.788 0 0 0-.04-.057L5.6 9.638c-.123-.164-.947-1.264-.947-2.402 0-1.07.526-1.632.768-1.89l.045-.049a.854.854 0 0 1 .62-.29c.155 0 .31 0 .446.007l.052.001c.135 0 .304-.002.47.398.065.154.159.383.258.623.2.487.42 1.025.46 1.103.058.117.096.252.019.408l-.033.066a1.32 1.32 0 0 1-.2.321l-.119.143c-.08.098-.16.195-.23.265-.116.115-.237.241-.101.474.135.233.602.994 1.293 1.61.743.663 1.388.943 1.716 1.085.063.027.115.05.153.069.233.116.368.097.504-.058.135-.155.58-.68.736-.912.155-.232.31-.194.523-.116.213.078 1.356.64 1.588.756l.127.062Z" fill="#58585B"/></svg>
